microsoft-xbox-controller.svg

<svg fill="currentColor" viewBox="0 0 24 24"><path d="M8.75 15.75C6.75 15.75 6 18 4 19c-2 0-3.5-3 .5-11.5h.25l.44-.83S8 5 9.33 6.23h5.34c1.33-1.23 4.14.44 4.14.44l.44.83h.25C23.5 16 22 19 20 19c-2-1-2.75-3.25-4.75-3.25zM12 7a1 1 0 0 0-1 1 1 1 0 0 0 1 1 1 1 0 0 0 1-1 1 1 0 0 0-1-1"/></svg>

<svg  viewBox="0 0 24 24" fill="currentColor"><path  d="M8.75,15.75C6.75,15.75 6,18 4,19C2,19 0.5,16 4.5,7.5H4.75L5.19,6.67C5.19,6.67 8,5 9.33,6.23H14.67C16,5 18.81,6.67 18.81,6.67L19.25,7.5H19.5C23.5,16 22,19 20,19C18,18 17.25,15.75 15.25,15.75H8.75M12,7A1,1 0 0,0 11,8A1,1 0 0,0 12,9A1,1 0 0,0 13,8A1,1 0 0,0 12,7Z"/></svg>
